!!!SOCIAL_FUNCTION: tick dance songs
!!!PDT:	1943
!!!LING_GROUP: Muskogean
!!!LANG: Non-Tone
Specific Region: Oklahoma, California, Mississippi, Louisiana, Texas, Alabama
!!!REG: Southeast
!!!COM: Anon.
!!!OTL: Tick Dance Song (f)
!!!ODT: <1933//
!!!MPN: Lysander Tubby
!!!MLC: Philadelphia, Mississippi, United States of America
!! Song was recorded in January 1933.
!!!AGN: monody
!!!AMT: simple duple
!!!RWG: Transcribed pitches, durations, and meters are only approximate.
**kern
*ICvox
*Imale
*clefF4
*k[f#]
*M2/4
*MM80
=1-
8A
8G
8E
8E
=2
8G
8G
8G
16E
16r
=3
16G
8.G
8G
16E
16r
=4
4A
(8.G
16F#)
=5
8E
8E
8E
8E
=6
8E
8G
8E
8E~
=7
8E
8E
8E
8r
=8
16G
8.E
4E
=9
8A
8G
8E
8E
=10
4G
4E
=11
16F#
8.E
8G
16E
16r
=12
4A
(8.G
16F#)
=13
8E
8E
8E
8E
=14
8E
8G
8E
8E~
=15
8E
8E
8E
8r
=16
16G
8.E
4E
=17
8A
8G
8E
8E
=18
4G
4r
=19
16E
8.E
8A
16E
16r
=20
4A
(8.G
16F#)
=21
8E
8E
8E
8E
=22
8E
8G
8E
8E~
=23
8E
8E
8E
8r
=24
16G
8.E
4E
=25
8A
8G
8E
8E
=26
4G
8.G
16E
=27
16G
8.G
8G
16E
16r
=28
4A
(8.G
16F#)
=29
8E
8E
8E
8E
=30
8E
8G
8E
8E~
=31
8E
8E
8E
8r
=32
16G
8.E
4E
=33
8A
8G
8E
8E
=34
4A
(8.G
16E)
=35
8E
8E
4E
=36
8E
8G
8E
8E~
=37
8E
8E
8E
16r
16G
=38
8E
8E
8E
8r
==
*-
!!!CNT: Choctaw
!!!TXO: Choctaw
!!!OCY: United States
!!!OCL: Frances Densmore
!!!YOR: Frances Densmore, "Choctaw Music"
!!!YOR: Bulletin 136, page 140, No. 15
!!!PPR: Smithsonian Institution, Bureau of American Ethnology
!!!PPR: Government Printing Office
!!!PDT: 1943
!!!PPP: Washington, DC, United States of America
!!!YEC: Electronic Copyright 2000 David Huron
!!!YER: August 2000
!!!YEN: United States of America
!!!ENC: David Huron
!!!RDT: August 27, 2000
!!!EEV: Release 1.0
!!!AIN: vox
